X: 540
T: Shain vi di l'vone
M: 2/4
L: 1/8
K: Dm
|:"Dm"DF ED | G F3 | DF ED | G F3 \
| "Gm"F{A}G GG | G2 G2 |1 "Dm"F/E/D "Gm"GD | "Dm"F3 "A7"A, \
:|2 "Dm"F/E/D "Gm"GG | "Dm"D2 z/D/E/F/ 
| "Gm"GD B/A/G | GD B/A/G | zB AG | "C7"GB AG \
| "F"FC A/G/F | FC A/G/F | zc2 d | "A7"AG "^d.C."FE |]



